X: 35909
T: Sandy River Belle
R: reel
M: 4/4
K: Gmajor
|:"G"DEGA B2 B2|"C"AGAB e2 d2|"G"DEGA B2 B2|"D"AGAB A2 D2|
"G"DEGA B2 B2|"C"AGAB e2 d2|"G"degd eged|"D"BG A2 "G"G4:|
|:"G"g2 gg edeg|"C"b2 bg agef|"G"g2 gg edeg|"D"fefg a4|
"G"g2 gg edeg|"C"b2 bg agef|"G"degd eged|"D"BG A2 "G"G4:|

